X:1010
T: Miss Lacey's
T: Miss Lucey's
T: Mona's Delight
S: B.Breathnach:"Ceol Rince na hEireann" IV/214 (gan ainm)
Z: B.Black
L: 1/8
M: 4/4
R: hornpipe
K: G
BA|GFGA B2 AG|FGAB c2 BA|Bcdg edAG|FADA FA D2|
GFGA B2 AG|FGAB c2 BA|(3Bcd BG ecAF|G2 GG G2 :|
Bc|dBdB g2 dB|ecec a2 ec|BdGd Bd G2|FADA FA D2|
dBdB g2 dB|ecec a2 ec|(3Bcd BG ecAF|G2 GG G2 :|
